assets/Safety vest/Flat/safety_vest_flat.svg

<svg width="32" height="32" viewBox="0 0 32 32" fill="none" xmlns="http://www.w3.org/2000/svg">
<path d="M26.12 3.77001C26.44 6.30001 27.41 8.64001 28.86 10.58C29.57 11.54 30.01 12.68 30.01 13.87V25V26V27.28C30.01 28.78 28.79 30 27.29 30H19.64C17.64 30 16.0078 28.3867 16.0078 26.3867C16.0078 28.3867 14.4 30 12.4 30H4.73001C3.23001 30 2.01001 28.78 2.01001 27.28V25.99V25.01V14.07C2.01001 12.85 2.46001 11.69 3.20001 10.72C4.72001 8.74001 5.76001 6.34001 6.10001 3.75001C6.23001 2.76001 7.03001 2.01001 8.03001 2.01001H9.45001C13.8908 2.01001 18.6905 2.01001 22.37 2.01001C22.94 2.01001 23.6 2.01001 24.21 2.02001C25.19 2.02001 26 2.78001 26.12 3.77001Z" fill="#FF6723"/>
<path d="M24.01 24H30V22H24.01V2H22.01V22H10.01V2.01H8.01V22H2V24H8.01" fill="#D3D3D3"/>
<path d="M16.5299 2.01001H15.5199H9.43994C10.4799 2.01001 11.2199 2.53001 11.4899 3.30001L15 13.0078V28.8987C15 28.8987 16.0039 28.0469 16.0039 26.4609C16.0039 28.0391 17.0156 28.8789 17.0156 28.8789V13.0078L20.5299 3.30001C20.8099 2.52001 21.5399 2.01001 22.3699 2.01001C26.2412 2.01001 17.7181 2.01001 16.5299 2.01001Z" fill="#CA0B4A"/>
</svg>

<svg xmlns="http://www.w3.org/2000/svg" width="32" height="32" fill="none"><path fill="#FF6723" d="M26.12 3.77c.32 2.53 1.29 4.87 2.74 6.81.71.96 1.15 2.1 1.15 3.29v13.41c0 1.5-1.22 2.72-2.72 2.72h-7.65c-2 0-3.632-1.613-3.632-3.613 0 2-1.608 3.613-3.608 3.613H4.73c-1.5 0-2.72-1.22-2.72-2.72V14.07c0-1.22.45-2.38 1.19-3.35 1.52-1.98 2.56-4.38 2.9-6.97.13-.99.93-1.74 1.93-1.74h14.34c.57 0 1.23 0 1.84.01.98 0 1.79.76 1.91 1.75Z"/><path fill="#D3D3D3" d="M24.01 24H30v-2h-5.99V2h-2v20h-12V2.01h-2V22H2v2h6.01"/><path fill="#CA0B4A" d="M16.53 2.01H9.44c1.04 0 1.78.52 2.05 1.29L15 13.008v15.89s1.004-.851 1.004-2.437c0 1.578 1.012 2.418 1.012 2.418V13.008L20.53 3.3c.28-.78 1.01-1.29 1.84-1.29h-5.84Z"/></svg>
